X: 28497
T: Munster Bank, The
R: polka
M: 2/4
K: Gmajor
|:G>E DE|GA Bd|ed BG/B/|AG E2|
G>E DE|GA Bd|ed BG/B/|AG G2:|
|:ed Bd|ed d2|g>e dB|AG E2|
G>E DE|GA Bd|ed BG/B/|AG G2:|

